web/ui/src/assets/svgs/btn/more-active.svg

<svg height="12" viewBox="0 0 12 12" width="12" xmlns="http://www.w3.org/2000/svg"><g fill="none" transform="matrix(0 -1 1 0 0 12)"><path d="m0 0h12v12h-12z" fill="#000" opacity="0"/><path d="m10.4037443 4.01087263-4.11779218 4.51835655c-.07865466.07897846-.18301991.11279553-.2862819.10765102-.10289024.00515651-.20729145-.02867256-.28594612-.10765102l-4.11745637-4.51835655c-.14773983-.14848333-.14773983-.38882438 0-.53691197.14735609-.14844735.3865819-.14844735.53398596 0l3.86940454 4.24605717 3.86974032-4.24605717c.14771585-.14844735.38697765-.14844735.53434575 0 .1477278.14808759.1477278.38842864 0 .53691197z" fill="#096dd9"/></g></svg>

<?xml version="1.0" encoding="UTF-8"?>
<svg width="12px" height="12px" viewBox="0 0 12 12" version="1.1" xmlns="http://www.w3.org/2000/svg" xmlns:xlink="http://www.w3.org/1999/xlink">
    <title>显示更多</title>
    <g id="页面-1" stroke="none" stroke-width="1" fill="none" fill-rule="evenodd">
        <g id="建木自动化-首页" transform="translate(-1717.000000, -738.000000)" fill-rule="nonzero">
            <g id="显示更多" transform="translate(1723.000000, 744.000000) rotate(-90.000000) translate(-1723.000000, -744.000000) translate(1717.000000, 738.000000)">
                <rect id="矩形" fill="#000000" opacity="0" x="0" y="0" width="12" height="12"></rect>
                <path d="M10.4037443,4.01087263 L6.28595212,8.52922918 C6.20729746,8.60820764 6.10293221,8.64202471 5.99967022,8.6368802 C5.89677998,8.64203671 5.79237877,8.60820764 5.7137241,8.52922918 L1.59626773,4.01087263 C1.4485279,3.8623893 1.4485279,3.62204825 1.59626773,3.47396066 C1.74362382,3.32551331 1.98284963,3.32551331 2.13025369,3.47396066 L5.99965823,7.72001783 L9.86939855,3.47396066 C10.0171144,3.32551331 10.2563762,3.32551331 10.4037443,3.47396066 C10.5514721,3.62204825 10.5514721,3.8623893 10.4037443,4.01087263 Z" id="路径" fill="#096DD9"></path>
            </g>
        </g>
    </g>
</svg>
